data/styles/clear/style-clear/symbols/hairdresser-m.svg

<svg height="24" viewBox="0 0 24 24" width="24"><g fill="none" fill-rule="evenodd"><circle cx="12" cy="12" fill="#fff" opacity=".6" r="12"/><circle cx="12" cy="12" fill="#717065" r="11"/><path d="m17.6754532 15.2628346-.41034-.7297799c-.6592035-1.1762449-2.1096412-1.5865629-3.2618225-.9359158l-1.1664293 2.927912.1187327.2950381.013298-.0244236c.034195.0771788.0598413.1533807.1006853.2276287l.4103399.7297799c.6677523 1.1918761 2.1485855 1.6012171 3.3083657.9124691 1.1597803-.6887481 1.5549224-2.2118094.8871702-3.4027085zm-1.3981954 2.3759365c-.1709749.1016026-.3666463.1543578-.5623176.1543578-.4055907 0-.7798359-.2227441-.9812064-.57933l-.4844291-.8636217c-.3115544-.5568601-.1272814-1.2700318.4122396-1.5885168.170975-.1025795.3675962-.1563116.5642175-.1563116.4036909 0 .7779361.223721.9802565.5803069l.4853789.8655756c.3115544.5558832.1253817 1.268078-.4141394 1.5875398zm-1.3972454-12.6387711-2.8799785 5.1328827-2.87997838-5.1328827-.70099738.41422578 2.58457166 6.49377072-.9622091 1.7116122c-1.15883041-.6887481-2.63871379-.280384-3.30646604.913446l-.41033993.7297799c-.66775226 1.191876-.2726101 2.7139604.88527041 3.4017315 1.16073009.6887481 2.64156332.279407 3.30931556-.912469l.4103399-.7297799c.0389443-.0722941.0645906-.1465421.0968859-.2227441l.0180473.019539 4.5374858-11.40586326zm-5.14444698 11.3492003-.47872992.8538522c-.1994708.3556089-.56991657.5754221-.9707579.5754221-.19377163 0-.38659341-.054709-.55661852-.1533807-.53382185-.3165311-.71714502-1.0228642-.40939007-1.5719087l.48062964-.8528753c.19757108-.354632.56991658-.578353.96980804-.578353.19377164 0 .38754327.0556861.55661852.1553347.532872.316531.71619519 1.0218872.40844021 1.5719087z" fill="#fff"/></g></svg>

<svg width="24" height="24" viewBox="0 0 24 24">
  <g fill="none" fill-rule="evenodd">
    <circle cx="12" cy="12" r="12" fill="#FFF" opacity=".6"/>
    <circle cx="12" cy="12" r="11" fill="#717065"/>
    <path fill="#FFF" d="M17.6754532,15.2628346 L17.2651132,14.5330547 C16.6059097,13.3568098 15.155472,12.9464918 14.0032907,13.5971389 L12.8368614,16.5250509 L12.9555941,16.820089 L12.9688921,16.7956654 C13.0030871,16.8728442 13.0287334,16.9490461 13.0695774,17.0232941 L13.4799173,17.753074 C14.1476696,18.9449501 15.6285028,19.3542911 16.788283,18.6655431 C17.9480633,17.976795 18.3432054,16.4537337 17.6754532,15.2628346 L17.6754532,15.2628346 Z M16.2772578,17.6387711 C16.1062829,17.7403737 15.9106115,17.7931289 15.7149402,17.7931289 C15.3093495,17.7931289 14.9351043,17.5703848 14.7337338,17.2137989 L14.2493047,16.3501772 C13.9377503,15.7933171 14.1220233,15.0801454 14.6615443,14.7616604 C14.8325193,14.6590809 15.0291405,14.6053488 15.2257618,14.6053488 C15.6294527,14.6053488 16.0036979,14.8290698 16.2060183,15.1856557 L16.6913972,16.0512313 C17.0029516,16.6071145 16.8167789,17.3193093 16.2772578,17.6387711 L16.2772578,17.6387711 Z M14.8800124,5 L12.0000339,10.1328827 L9.12005552,5 L8.41905814,5.41422578 L11.0036298,11.9079965 L10.0414207,13.6196087 C8.88259029,12.9308606 7.40270691,13.3392247 6.73495466,14.5330547 L6.32461473,15.2628346 C5.65686247,16.4547106 6.05200463,17.976795 7.20988514,18.6645661 C8.37061523,19.3533142 9.85144846,18.9439731 10.5192007,17.7520971 L10.9295406,17.0223172 C10.9684849,16.9500231 10.9941312,16.8757751 11.0264265,16.7995731 L11.0444738,16.8191121 L15.5819596,5.41324884 L14.8800124,5 L14.8800124,5 Z M9.73556542,16.3492003 L9.2568355,17.2030525 C9.0573647,17.5586614 8.68691893,17.7784746 8.2860776,17.7784746 C8.09230597,17.7784746 7.89948419,17.7237656 7.72945908,17.6250939 C7.19563723,17.3085628 7.01231406,16.6022297 7.32006901,16.0531852 L7.80069865,15.2003099 C7.99826973,14.8456779 8.37061523,14.6219569 8.77050669,14.6219569 C8.96427833,14.6219569 9.15804996,14.677643 9.32712521,14.7772916 C9.85999721,15.0938226 10.0433204,15.7991788 9.73556542,16.3492003 L9.73556542,16.3492003 Z"/>
  </g>
</svg>
